dist/images/icons/linkedin.svg

<svg width="24" height="24" viewBox="0 0 24 24" fill="none" xmlns="http://www.w3.org/2000/svg">
<path fill-rule="evenodd" clip-rule="evenodd" d="M20 19H16.9231V13.3967C16.9231 11.8596 16.2715 11.0022 15.1031 11.0022C13.8315 11.0022 13.0769 11.8956 13.0769 13.3967V19H10V8.59243H13.0769V9.76288C13.0769 9.76288 14.0423 8 16.2177 8C18.3938 8 20 9.3818 20 12.2415C20 15.1004 20 19 20 19ZM5.50031 6C4.67151 6 4 5.32819 4 4.4997C4 3.67181 4.67151 3 5.50031 3C6.32849 3 7 3.67181 7 4.4997C7.00061 5.32819 6.32849 6 5.50031 6ZM4 19H7V9H4V19Z" fill="white"/>
</svg>

<svg width="24" height="24" fill="none" xmlns="http://www.w3.org/2000/svg"><path fill-rule="evenodd" clip-rule="evenodd" d="M20 19h-3.077v-5.603c0-1.537-.651-2.395-1.82-2.395-1.271 0-2.026.894-2.026 2.395V19H10V8.592h3.077v1.17S14.042 8 16.217 8C18.395 8 20 9.382 20 12.242V19zM5.5 6a1.5 1.5 0 110-3 1.5 1.5 0 010 3zM4 19h3V9H4v10z" fill="#fff"/></svg>
